X:1
T:Title
%%score { ( 1 4 ) | ( 2 3 ) }
L:1/8
M:4/4
K:C
V:1 treble nm="Grand Piano"
V:4 treble 
V:2 bass 
V:3 bass 
V:1
 z4 z2[Q:1/4=104] [EG]>[DF] | E2 EE [EG]2 [DF]E | G2 F4 DE | F2 FF .[FB]2 [G,EG][G,DF] | %4
 [G,CE]6 [G,CE][CEG] | [Ec]2 [Fc][Fc] [Ec] [EG]2 [Gc] | [Ac]4 [FA]2 [Af][Af] | e e2 c dc B2 | %8
[M:3/4] [Ec]6 |[M:1/4] [EG][Ec] |[M:4/4] [Ge] [Ge]2 [Ec] [EG]2 [EG]c | B6 z2 | [Bf] f2 d G2 df | %13
 e6[K:bass][K:treble] z2 | [Ec][Ec] [Ec]2 [Ge]2 [CGc][CGc] | [CFA]2 [CAc][CFA] [CEG]2 [CGc]d | %16
 ee [Ec]2 [Fd] [Fd]2 [DB] |[M:3/4] c6 |] %18
V:2
 z4 z2 [C,G,]>[C,G,] | [C,G,C]2 [C,G,C][C,G,C] [C,C]2 [C,G,][C,G,C] | [G,E]2 [G,D]4 [G,B,][G,C] | %3
 [G,D]2 [G,D][G,D] z AA,,B,, | C,6 C,C, | [C,G,]2 [C,A,][C,A,] [C,G,] [C,C]2 [E,C] | %6
 [F,C]4 [F,C]2 [F,C][F,C] | [G,CG] [G,CG]2 [G,E] [G,B,F][G,E][K:bass] [G,D]2 |[M:3/4] [C,G,]6 | %9
[M:1/4] [C,C][C,G,] |[M:4/4] [C,C] [C,C]2 [C,G,] [C,C]2 C[K:treble][EG] | %11
 [G,DF]2 [G,D]2 [G,D]2 [G,D][G,B,F] | [G,D] [G,B,G]2 [G,B,G] [G,B,]2 [G,G]-[G,DG] | %13
 [CG]6[K:bass] [C,G,C][C,C] | [C,G,][C,G,] [C,G,]2 C2 E,E, | F,2 F,F, C,2 E,[K:treble][G,B,G] | %16
 [CG][CG][K:bass] [C,G,]2 [G,B,] [G,B,]2 [G,,G,] |[M:3/4] G,2 z2 z2 |] %18
V:3
 x8 | x8 | x8 | z4 [G,,G,]2 z2 | x8 | x8 | x8 | x6[K:bass] x2 |[M:3/4] x6 |[M:1/4] x2 | %10
[M:4/4] z4 z2 C,2[K:treble] | x8 | z4 z2 .B,2 | G,2 z2 z4[K:bass] | x8 | x7[K:treble] x | %16
 x2[K:bass] x6 |[M:3/4] C,2- [C,-A,]2 [C,G,]2 |] %18
V:4
 x8 | x8 | x8 | x8 | x8 | x8 | x8 | x8 |[M:3/4] x6 |[M:1/4] x2 |[M:4/4] x8 | z2 F2 F2 Bd | x8 | %13
 z z/[K:bass] A,/ G,E, D,C,[K:treble]E[EG] | x8 | x8 | x8 |[M:3/4] E2 F2 E2 |] %18

